lib/logo_updates/nrk-logo-nrk-sport-on-dark.svg

<svg width="283" height="71" viewBox="0 0 283 71" fill="none" xmlns="http://www.w3.org/2000/svg">
<path d="M0 56.5V14.5038H13.7802V56.5H0ZM32.5283 21.1877L40.4532 56.5H25.3721L15.9092 14.5038H24.3676C26.3072 14.4786 28.1892 15.1624 29.6607 16.4264C31.1347 17.6373 32.1473 19.3184 32.5283 21.1877ZM42.5233 56.5V14.5038H56.3035V56.5H42.5233ZM66.7116 30.4743C65.2267 30.4888 63.7656 30.1003 62.4839 29.3504C61.2193 28.6194 60.1688 27.5689 59.438 26.3041C58.6872 25.0222 58.2986 23.5607 58.3134 22.0751C58.2964 20.5986 58.6853 19.1458 59.438 17.8755C60.1766 16.6245 61.2259 15.5853 62.4839 14.8588C63.766 14.1098 65.2269 13.7213 66.7116 13.7348C68.1877 13.7189 69.6399 14.1078 70.9108 14.8588C72.1562 15.5917 73.1943 16.63 73.9271 17.8755C74.6789 19.1462 75.0677 20.5987 75.0517 22.0751C75.0655 23.5605 74.6769 25.0218 73.9271 26.3041C73.202 27.5633 72.1627 28.613 70.9108 29.3504C69.6398 30.1029 68.1866 30.4918 66.7097 30.4743H66.7116ZM77.1807 56.5V14.5038H90.9621V56.5H77.1807ZM108.408 37.4538C108.447 37.4946 108.742 37.9776 109.295 38.903C109.848 39.8283 110.567 41.0114 111.454 42.452C112.341 43.892 113.277 45.4199 114.262 47.036C115.247 48.6521 116.174 50.1803 117.043 51.6202C117.908 53.0602 118.894 54.6867 120 56.5H104.859C103.912 54.9621 103.055 53.5721 102.286 52.33C101.517 51.0878 100.7 49.7471 99.8334 48.3077C98.9653 46.8698 98.1071 45.4699 97.2587 44.1081C96.4103 42.7464 95.6813 41.5536 95.0714 40.5297C94.459 39.5051 94.0348 38.8149 93.7989 38.4594C93.2139 37.5771 92.8677 36.558 92.7944 35.5019C92.853 34.4883 93.1791 33.5084 93.7397 32.6619C93.9762 32.2676 94.41 31.5675 95.0409 30.562C95.6717 29.5564 96.411 28.3637 97.2587 26.9835C98.1064 25.6034 98.9647 24.1936 99.8334 22.7543C100.702 21.315 101.519 19.9643 102.286 18.7025C103.056 17.4419 103.914 16.0421 104.859 14.5029H120L108.289 33.6082C107.926 34.1755 107.722 34.8292 107.697 35.5019C107.736 36.2081 107.983 36.8871 108.406 37.4538H108.408Z" fill="white"/>
<path d="M161.78 36.8456C160.919 35.9679 159.919 35.2379 158.821 34.6849C157.669 34.1021 156.471 33.617 155.239 33.2346C153.976 32.8399 152.674 32.5041 151.332 32.2272C150.305 31.9911 149.348 31.7546 148.461 31.5178C147.646 31.3073 146.853 31.0196 146.093 30.6585C145.44 30.3491 144.832 29.9508 144.289 29.4746C143.776 29.023 143.38 28.4548 143.133 27.818C142.861 27.0689 142.731 26.2756 142.75 25.4787C142.736 24.6536 142.866 23.8325 143.133 23.0517C143.376 22.363 143.782 21.7434 144.317 21.2461C144.871 20.7388 145.5 20.3199 146.182 20.004C146.962 19.6485 147.79 19.409 148.639 19.2935C149.648 19.1496 150.667 19.0804 151.687 19.0864C152.617 19.0882 153.545 19.1373 154.47 19.2334C155.404 19.331 156.333 19.4795 157.252 19.6783C158.144 19.8719 159.024 20.119 159.886 20.4183C160.694 20.696 161.476 21.0423 162.224 21.4533L163.053 16.2449C162.211 15.8057 161.329 15.4489 160.419 15.1794C159.492 14.9038 158.554 14.6666 157.607 14.468C156.648 14.2699 155.68 14.122 154.706 14.025C153.72 13.9263 152.713 13.877 151.687 13.877C149.594 13.8542 147.506 14.0925 145.471 14.5864C143.739 15.0048 142.102 15.7484 140.647 16.7777C139.307 17.7394 138.228 19.021 137.51 20.5061C136.743 22.1754 136.369 23.9977 136.414 25.8339C136.38 27.2549 136.611 28.6698 137.095 30.0063C137.52 31.127 138.175 32.1458 139.019 32.9968C139.854 33.8297 140.812 34.5286 141.86 35.0687C142.971 35.6413 144.13 36.117 145.324 36.4905C146.567 36.8851 147.84 37.2206 149.142 37.4968C150.207 37.733 151.194 37.9796 152.102 38.2368C152.946 38.4695 153.768 38.7765 154.558 39.1543C155.238 39.4749 155.866 39.8938 156.423 40.3975C156.952 40.8942 157.366 41.5003 157.637 42.1734C157.95 42.9846 158.101 43.8495 158.081 44.7189C158.096 45.6434 157.956 46.5639 157.666 47.442C157.407 48.2014 157.005 48.9045 156.482 49.5139C155.957 50.1143 155.312 50.5981 154.588 50.9337C153.77 51.3105 152.903 51.5698 152.012 51.7041C150.925 51.871 149.827 51.9503 148.727 51.941C147.659 51.9384 146.591 51.8691 145.531 51.7338C144.426 51.5956 143.321 51.4079 142.216 51.1705C141.127 50.9386 140.05 50.6521 138.99 50.3121C137.944 49.9786 136.947 49.6336 136 49.2771L136.77 55.1377C137.779 55.5143 138.806 55.84 139.848 56.1135C140.794 56.3618 141.752 56.5594 142.719 56.7054C143.645 56.8429 144.572 56.9514 145.501 57.031C146.43 57.1106 147.367 57.15 148.312 57.1494C150.431 57.1626 152.546 56.9442 154.617 56.4982C156.452 56.1136 158.198 55.391 159.768 54.3671C161.232 53.3979 162.416 52.0607 163.201 50.4897C164.066 48.629 164.482 46.5911 164.415 44.5403C164.447 43.0124 164.217 41.4904 163.734 40.0404C163.321 38.8469 162.655 37.757 161.78 36.8456Z" fill="#F34531"/>
<path d="M194.339 27.522C192.215 26.2212 189.755 25.5728 187.265 25.6573C185.787 25.6646 184.316 25.8531 182.885 26.2186C181.337 26.6126 179.846 27.1997 178.445 27.966C178.167 28.1159 177.89 28.2847 177.616 28.4534V25.7164L171.578 26.6637V68.9297H177.616V55.6763C177.656 55.693 177.694 55.7118 177.734 55.7296C178.828 56.1836 179.97 56.5113 181.138 56.7064C182.517 56.9338 183.913 57.0427 185.311 57.0319C187.976 57.0779 190.604 56.4026 192.917 55.0774C195.189 53.7313 197.036 51.7723 198.245 49.4251C199.643 46.6264 200.325 43.5244 200.228 40.3974C200.284 37.7534 199.769 35.1286 198.718 32.7018C197.792 30.5865 196.271 28.7866 194.339 27.522ZM192.771 47.3235C192.059 48.8954 190.867 50.201 189.367 51.052C187.698 51.9262 185.832 52.3547 183.95 52.2962C183.048 52.2968 182.148 52.2272 181.256 52.0879C180.321 51.939 179.401 51.7116 178.504 51.4082C178.22 51.3095 177.912 51.1971 177.616 51.0885V32.4067C177.694 32.3702 177.775 32.3229 177.853 32.2874C178.72 31.8927 179.529 31.557 180.28 31.28C180.99 31.0148 181.723 30.8166 182.47 30.6881C183.135 30.5736 183.808 30.5141 184.483 30.5104C186.307 30.4498 188.118 30.8467 189.75 31.6648C191.178 32.4418 192.296 33.6846 192.917 35.1861C193.67 37.1073 194.023 39.162 193.953 41.2242C194.016 43.3199 193.612 45.4033 192.771 47.3235Z" fill="#F34531"/>
<path d="M229.088 27.5514C226.622 26.2406 223.859 25.5882 221.067 25.6571C218.249 25.5925 215.463 26.2659 212.985 27.6106C210.698 28.8904 208.828 30.8016 207.598 33.1159C206.262 35.712 205.601 38.6024 205.674 41.521C205.599 44.4173 206.218 47.2895 207.48 49.8975C208.614 52.1741 210.423 54.0453 212.66 55.2559C215.068 56.5172 217.756 57.1482 220.474 57.09C223.319 57.1465 226.131 56.4743 228.643 55.1375C230.989 53.858 232.912 51.9244 234.179 49.5719C235.553 46.9454 236.236 44.0119 236.162 41.0485C236.229 38.2255 235.599 35.4296 234.326 32.9088C233.147 30.6454 231.324 28.7814 229.088 27.5514ZM228.732 47.3826C228.067 48.9206 226.939 50.2136 225.507 51.0825C224.066 51.9067 222.43 52.326 220.771 52.296C219.143 52.3365 217.539 51.9043 216.152 51.0519C214.781 50.1405 213.709 48.843 213.074 47.3234C212.268 45.3737 211.885 43.2754 211.949 41.1668C211.879 39.115 212.263 37.0731 213.074 35.1869C213.738 33.7044 214.845 32.4637 216.242 31.635C217.735 30.8126 219.421 30.4039 221.125 30.4511C222.456 30.4179 223.778 30.6702 225.002 31.1911C226.075 31.6755 227.011 32.4181 227.727 33.3527C228.489 34.3682 229.042 35.5253 229.353 36.7567C229.723 38.1971 229.902 39.6798 229.886 41.1668C229.955 43.2979 229.562 45.4187 228.732 47.3826Z" fill="#F34531"/>
<path d="M255.873 26.1002C254.766 26.3978 253.709 26.8565 252.735 27.4617C251.726 28.0925 250.793 28.8374 249.953 29.6816C249.813 29.8217 249.678 29.9776 249.539 30.1246V25.7163L243.501 26.6043V56.4991H249.539V34.1342C249.987 33.8206 250.452 33.5302 250.93 33.264C251.522 32.9372 252.136 32.6504 252.766 32.4057C253.377 32.1689 253.999 31.9617 254.63 31.7841C255.28 31.6031 255.943 31.4741 256.613 31.3983C257.33 31.3195 258.053 31.3 258.774 31.3402L259.484 25.7746C258.271 25.6883 257.051 25.7982 255.873 26.1002Z" fill="#F34531"/>
<path d="M281.565 51.5562C281.287 51.6154 280.982 51.6736 280.646 51.7337L279.641 51.9104C279.318 51.9688 278.992 52.0086 278.664 52.0298C278.347 52.0495 278.051 52.0594 277.776 52.0594C276.869 52.0836 275.968 51.9014 275.142 51.5266C274.432 51.1894 273.843 50.6417 273.455 49.9579C273.04 49.1854 272.836 48.3173 272.863 47.441V31.0442H281.21L281.861 26.3084H272.863V16.9562L266.825 19.0873V26.3084H262.266L261.614 31.0442H266.825V48.6851C266.798 49.8618 266.978 51.034 267.357 52.1482C267.662 53.0293 268.134 53.8431 268.748 54.5446C269.311 55.1704 269.996 55.674 270.761 56.0246C271.544 56.3849 272.369 56.6438 273.217 56.7951C274.057 56.9499 274.909 57.0291 275.762 57.0319C276.394 57.0319 277.016 57.0119 277.628 56.9718C278.24 56.9317 278.803 56.8727 279.315 56.7951C279.827 56.7152 280.312 56.6264 280.766 56.5278C281.22 56.4291 281.603 56.3424 281.919 56.2624L282.275 51.348C282.045 51.4372 281.807 51.5069 281.565 51.5562Z" fill="#F34531"/>
</svg>

<svg xmlns="http://www.w3.org/2000/svg" viewBox="0 0 283 71"><path fill="#fff" d="M0 56.5V14.504h13.78V56.5H0Zm32.528-35.312L40.453 56.5h-15.08l-9.464-41.996h8.459a7.965 7.965 0 0 1 5.293 1.922 8.31 8.31 0 0 1 2.867 4.762ZM42.523 56.5V14.504h13.78V56.5h-13.78Zm24.189-26.026a8.213 8.213 0 0 1-4.228-1.124 8.336 8.336 0 0 1-3.046-3.046 8.206 8.206 0 0 1-1.125-4.229 8.056 8.056 0 0 1 1.125-4.2 8.437 8.437 0 0 1 3.046-3.016 8.233 8.233 0 0 1 4.228-1.124 8.083 8.083 0 0 1 4.199 1.124 8.504 8.504 0 0 1 3.016 3.016 8.075 8.075 0 0 1 1.125 4.2 8.226 8.226 0 0 1-1.125 4.23 8.4 8.4 0 0 1-3.016 3.045 8.059 8.059 0 0 1-4.201 1.124h.002ZM77.18 56.5V14.504h13.781V56.5H77.181Zm31.227-19.046c.039.04.334.524.887 1.449.553.925 1.272 2.108 2.159 3.549a1143.28 1143.28 0 0 1 5.589 9.168A854.89 854.89 0 0 0 120 56.5h-15.141c-.947-1.538-1.804-2.928-2.573-4.17a382.214 382.214 0 0 1-2.453-4.022 351.934 351.934 0 0 0-2.574-4.2 213.445 213.445 0 0 1-2.188-3.578 62.753 62.753 0 0 0-1.272-2.07 6.119 6.119 0 0 1-1.005-2.958 5.744 5.744 0 0 1 .946-2.84c.236-.394.67-1.095 1.3-2.1.632-1.006 1.371-2.198 2.219-3.579a636.03 636.03 0 0 0 2.574-4.229c.869-1.439 1.686-2.79 2.453-4.052.77-1.26 1.628-2.66 2.573-4.2H120l-11.711 19.106a3.773 3.773 0 0 0-.592 1.894c.039.706.286 1.385.709 1.952h.002Z"/><path fill="#F34531" d="M161.78 36.846a11.207 11.207 0 0 0-2.959-2.161 23.11 23.11 0 0 0-3.582-1.45 40.58 40.58 0 0 0-3.907-1.008 84.993 84.993 0 0 1-2.871-.71 13.223 13.223 0 0 1-2.368-.858 7.805 7.805 0 0 1-1.804-1.184 4.257 4.257 0 0 1-1.156-1.657 6.407 6.407 0 0 1-.383-2.34 7.127 7.127 0 0 1 .383-2.426 4.516 4.516 0 0 1 1.184-1.806 7.312 7.312 0 0 1 1.865-1.242 8.779 8.779 0 0 1 2.457-.71 20.727 20.727 0 0 1 3.048-.208c.93.002 1.858.051 2.783.147.934.098 1.863.247 2.782.445.892.194 1.772.441 2.634.74.808.278 1.59.624 2.338 1.035l.829-5.208a14.754 14.754 0 0 0-2.634-1.066 35.268 35.268 0 0 0-2.812-.711 28.106 28.106 0 0 0-2.901-.443 30.307 30.307 0 0 0-3.019-.148 25.191 25.191 0 0 0-6.216.71 14.076 14.076 0 0 0-4.824 2.19 9.888 9.888 0 0 0-3.137 3.73 12.052 12.052 0 0 0-1.096 5.327 11.45 11.45 0 0 0 .681 4.172 8.552 8.552 0 0 0 1.924 2.99 11.45 11.45 0 0 0 2.841 2.073 21.707 21.707 0 0 0 3.464 1.421c1.243.395 2.516.73 3.818 1.007a53.03 53.03 0 0 1 2.96.74c.844.232 1.666.54 2.456.917.68.32 1.308.74 1.865 1.243a4.994 4.994 0 0 1 1.214 1.776c.313.812.464 1.676.444 2.546a8.256 8.256 0 0 1-.415 2.723 6.309 6.309 0 0 1-1.184 2.072 5.7 5.7 0 0 1-1.894 1.42 9.563 9.563 0 0 1-2.576.77 20.498 20.498 0 0 1-3.285.237 25.744 25.744 0 0 1-3.196-.207 38.555 38.555 0 0 1-3.315-.564 33.21 33.21 0 0 1-3.226-.858 61.647 61.647 0 0 1-2.99-1.035l.77 5.86c1.009.377 2.036.703 3.078.977.946.248 1.904.445 2.871.591.926.138 1.853.246 2.782.326.929.08 1.866.119 2.811.118a29.093 29.093 0 0 0 6.305-.65 15.097 15.097 0 0 0 5.151-2.132 10.023 10.023 0 0 0 3.433-3.877 13.099 13.099 0 0 0 1.214-5.95 13.353 13.353 0 0 0-.681-4.5 8.738 8.738 0 0 0-1.954-3.194ZM194.339 27.522a12.72 12.72 0 0 0-7.074-1.865 18.06 18.06 0 0 0-4.38.562 19.035 19.035 0 0 0-4.44 1.747c-.278.15-.555.319-.829.487v-2.737l-6.038.948V68.93h6.038V55.676c.04.017.078.036.118.054 1.094.454 2.236.781 3.404.976 1.379.228 2.775.337 4.173.326 2.665.046 5.293-.63 7.606-1.955a14.047 14.047 0 0 0 5.328-5.652 18.892 18.892 0 0 0 1.983-9.028 18.384 18.384 0 0 0-1.51-7.695 11.887 11.887 0 0 0-4.379-5.18Zm-1.568 19.802a8.156 8.156 0 0 1-3.404 3.728 10.943 10.943 0 0 1-5.417 1.244c-.902 0-1.802-.069-2.694-.208a16.865 16.865 0 0 1-2.752-.68 56.55 56.55 0 0 1-.888-.32V32.407c.078-.037.159-.084.237-.12.867-.394 1.676-.73 2.427-1.007a12.14 12.14 0 0 1 4.203-.77c1.824-.06 3.635.337 5.267 1.155a7.097 7.097 0 0 1 3.167 3.521 15.14 15.14 0 0 1 1.036 6.038 14.144 14.144 0 0 1-1.182 6.1ZM229.088 27.551a16.237 16.237 0 0 0-8.021-1.894 16.168 16.168 0 0 0-8.082 1.954 13.649 13.649 0 0 0-5.387 5.505 17.416 17.416 0 0 0-1.924 8.405 18.152 18.152 0 0 0 1.806 8.377 12.358 12.358 0 0 0 5.18 5.358 16.097 16.097 0 0 0 7.814 1.834 16.683 16.683 0 0 0 8.169-1.953 13.784 13.784 0 0 0 5.536-5.565 17.45 17.45 0 0 0 1.983-8.524 17.153 17.153 0 0 0-1.836-8.14 12.936 12.936 0 0 0-5.238-5.357Zm-.356 19.832a8.08 8.08 0 0 1-3.225 3.7 9.203 9.203 0 0 1-4.736 1.213 8.42 8.42 0 0 1-4.619-1.244 8.34 8.34 0 0 1-3.078-3.729 14.929 14.929 0 0 1-1.125-6.156 13.936 13.936 0 0 1 1.125-5.98 7.872 7.872 0 0 1 3.168-3.552 9.572 9.572 0 0 1 4.883-1.184 9.308 9.308 0 0 1 3.877.74 7.126 7.126 0 0 1 2.725 2.162 9.58 9.58 0 0 1 1.626 3.404c.37 1.44.549 2.923.533 4.41a14.741 14.741 0 0 1-1.154 6.216ZM255.873 26.1a11.701 11.701 0 0 0-3.138 1.362 15.563 15.563 0 0 0-2.782 2.22c-.14.14-.275.296-.414.443v-4.409l-6.038.888V56.5h6.038V34.134a15.152 15.152 0 0 1 3.227-1.728 20.607 20.607 0 0 1 1.864-.622 12.724 12.724 0 0 1 4.144-.444l.71-5.565a11.312 11.312 0 0 0-3.611.325ZM281.565 51.556c-.278.06-.583.118-.919.178l-1.005.176a8.611 8.611 0 0 1-.977.12c-.317.02-.613.03-.888.03a5.989 5.989 0 0 1-2.634-.533 3.828 3.828 0 0 1-1.687-1.57 4.993 4.993 0 0 1-.592-2.516V31.044h8.347l.651-4.736h-8.998v-9.352l-6.038 2.131v7.221h-4.559l-.652 4.736h5.211v17.641a10.039 10.039 0 0 0 .532 3.463 7.228 7.228 0 0 0 1.391 2.397 6.16 6.16 0 0 0 2.013 1.48c.783.36 1.608.619 2.456.77.84.155 1.692.234 2.545.237.632 0 1.254-.02 1.866-.06a20.074 20.074 0 0 0 3.138-.444c.454-.099.837-.186 1.153-.266l.356-4.914c-.23.09-.468.159-.71.208Z"/></svg>
